!!!OTL: Folk song Number 6
!!!CNT: Chinese
**kern
*k[f#]
*M2/4
*MM72
=1
8b
(16a
16b)
(8.d
16e)
=2
8g
(16g
16a)
(16g
8e)
16dd
=3
8b
8d
(16e
16d)
8B
=4
2a
!! page 5
=5
8b
(16a
16b)
(8.d
16e)
=6
8g
(16g
16a)
(16g
8e)
16dd
=7
8b
(8d
16e
16d)
8B
=8
2d
==
*-
!!!PPR: Yin yueh ch'u pan she
!!!OPR: Chung-kuo min ko Chung-kuo yin yueh yen chiu so pien [Chinese folk songs]
!!!OCL: Chung-kuo yin yueh yen chiu so
!!!PPP: Beijing, China
!!!PDT: 1959///
!!!SML: Edward Johnson Library, University of Toronto M1804.C4694C5
!!!PPG: pp.4-5
!!!ENC: David Huron
!!!EMD: Paul von Hippel updated this file in the following ways (1998/9/29/, 1998/10/27/):
!!!EMD:  (1) changed the representation of slurs from curly braces to parentheses 
!!!EMD:  (2) changed freeform comments into reference records and tandem interpretations
!!!EMD:  (3) corrected the author, title, author, and call number of the printed source 
!!!EEV: Version 2.0
